; generated by PrusaSlicer 2.6.1+win64 on 2024-08-06 at 15:37:41 UTC


;
;

;
;

;
;

;
;
; 

; external perimeters extrusion width = 0.45mm
; perimeters extrusion width = 0.45mm
; infill extrusion width = 0.45mm
; solid infill extrusion width = 0.45mm
; top infill extrusion width = 0.42mm
; first layer extrusion width = 0.50mm

M73 P0 R22
M201 X2500 Y2500 Z200 E2500 ; sets maximum accelerations, mm/sec^2
M203 X200 Y200 Z40 E100 ; sets maximum feedrates, mm / sec
M204 P2000 R1200 T2000 ; sets acceleration (P, T) and retract acceleration (R), mm/sec^2
M205 X8.00 Y8.00 Z2.00 E10.00 ; sets the jerk limits, mm/sec
M205 S0 T0 ; sets the minimum extruding and travel feed rate, mm/sec
;TYPE:Custom
M17 ; enable steppers
M862.3 P "MK4" ; printer model check
M862.1 P0.4 ; nozzle diameter check
M115 U5.0.1+12089

M555 X112.5 Y78.95 W32 H48.1

G90 ; use absolute coordinates
M83 ; extruder relative mode

M140 S60 ; set bed temp
M104 T0 S170 ; set extruder temp for bed leveling
M109 T0 R170 ; wait for temp

M84 E ; turn off E motor

G28 ; home all without mesh bed level

G1 X42 Y-4 Z5 F4800

M302 S160 ; lower cold extrusion limit to 160C


G1 E-2 F2400 ; retraction


M84 E ; turn off E motor

G29 P9 X10 Y-4 W32 H4

M106 S100

G0 Z40 F10000

M190 S60 ; wait for bed temp

M107

;
; MBL
;
M84 E ; turn off E motor
G29 P1 ; invalidate mbl & probe print area
G29 P1 X0 Y0 W50 H20 C ; probe near purge place
G29 P3.2 ; interpolate mbl probes
G29 P3.13 ; extrapolate mbl outside probe area
G29 A ; activate mbl

; prepare for purge
M104 S215
G0 X0 Y-4 Z15 F4800 ; move away and ready for the purge
M109 S215

G92 E0
M569 S0 E ; set spreadcycle mode for extruder

;
; Extrude purge line
;
G92 E0 ; reset extruder position
G1 E2 F2400 ; deretraction after the initial one before nozzle cleaning
G0 E7 X15 Z0.2 F500 ; purge
G0 X25 E4 F500 ; purge
G0 X35 E4 F650 ; purge
G0 X45 E4 F800 ; purge
G0 X48 Z0.05 F8000 ; wipe, move close to the bed
G0 X51 Z0.2 F8000 ; wipe, move quickly away from the bed

G92 E0
M221 S100 ; set flow to 100%
G21 ; set units to millimeters
G90 ; use absolute coordinates
M83 ; use relative distances for extrusion
M900 K0.05 ; Filament gcode



M142 S36 ; set heatbreak target temp
M107
;LAYER_CHANGE
;Z:0.2
;HEIGHT:0.2
;BEFORE_LAYER_CHANGE
G92 E0.0
;0.2


G1 E-.8 F2100
G1 Z.2 F720
;AFTER_LAYER_CHANGE
;0.2
; printing object Untitled.stl id:0 copy 0
G1 Z.4
G1 X128.407 Y126.143 F12000
G1 Z.2 F720
G1 E.8 F1500
M204 P600
;TYPE:Perimeter
;WIDTH:0.499999
G1 F1200
G1 X128.407 Y83.857 E1.60713
G1 X136.593 Y83.857 E.31112
G1 X136.593 Y126.143 E1.60713
G1 X128.467 Y126.143 E.30884
M204 P1000
G1 X127.95 Y126.6 F12000
M204 P600
;TYPE:External perimeter
G1 F1200
G1 X127.95 Y83.4 E1.64187
G1 X137.05 Y83.4 E.34586
G1 X137.05 Y126.6 E1.64187
G1 X128.01 Y126.6 E.34358
M204 P1000
G1 X127.978 Y126.201 F12000
G1 E-.64 F2100
;WIPE_START
M73 P1 R22
G1 F9600
G1 X128.009 Y125.83 E-.16
;WIPE_END
G1 Z.4 F720
G1 X135.451 Y84.063 F12000
G1 Z.2 F720
G1 E.8 F1500
M204 P600
;TYPE:Solid infill
;WIDTH:0.505706
G1 F1200
G1 X136.182 Y84.793 E.03975
G1 X136.182 Y85.448 E.0252
G1 X135.002 Y84.268 E.06422
G1 X134.348 Y84.268 E.02517
G1 X136.182 Y86.102 E.09981
G1 X136.182 Y86.757 E.0252
G1 X133.693 Y84.268 E.13545
G1 X133.039 Y84.268 E.02517
G1 X136.182 Y87.411 E.17104
G1 X136.182 Y88.066 E.0252
G1 X132.384 Y84.268 E.20669
G1 X131.73 Y84.268 E.02517
G1 X136.182 Y88.72 E.24228
G1 X136.182 Y89.374 E.02517
G1 X131.076 Y84.268 E.27787
G1 X130.421 Y84.268 E.0252
G1 X136.182 Y90.029 E.31351
G1 X136.182 Y90.683 E.02517
G1 X129.767 Y84.268 E.3491
G1 X129.112 Y84.268 E.0252
G1 X136.182 Y91.338 E.38475
G1 X136.182 Y91.992 E.02517
G1 X128.818 Y84.629 E.40072
G1 X128.818 Y85.284 E.0252
G1 X136.182 Y92.647 E.40072
G1 X136.182 Y93.301 E.02517
G1 X128.818 Y85.938 E.40072
G1 X128.818 Y86.593 E.0252
G1 X136.182 Y93.956 E.40072
G1 X136.182 Y94.61 E.02517
G1 X128.818 Y87.247 E.40072
G1 X128.818 Y87.902 E.0252
G1 X136.182 Y95.265 E.40072
G1 X136.182 Y95.919 E.02517
G1 X128.818 Y88.556 E.40072
G1 X128.818 Y89.211 E.0252
G1 X136.182 Y96.574 E.40072
G1 X136.182 Y97.228 E.02517
G1 X128.818 Y89.865 E.40072
G1 X128.818 Y90.52 E.0252
G1 X136.182 Y97.883 E.40072
G1 X136.182 Y98.537 E.02517
G1 X128.818 Y91.174 E.40072
G1 X128.818 Y91.829 E.0252
M73 P2 R22
G1 X136.182 Y99.192 E.40072
G1 X136.182 Y99.846 E.02517
G1 X128.818 Y92.483 E.40072
G1 X128.818 Y93.138 E.0252
G1 X136.182 Y100.501 E.40072
G1 X136.182 Y101.155 E.02517
G1 X128.818 Y93.792 E.40072
G1 X128.818 Y94.446 E.02517
G1 X136.182 Y101.81 E.40075
G1 X136.182 Y102.464 E.02517
G1 X128.818 Y95.101 E.40072
G1 X128.818 Y95.755 E.02517
G1 X136.182 Y103.119 E.40075
G1 X136.182 Y103.773 E.02517
G1 X128.818 Y96.41 E.40072
G1 X128.818 Y97.064 E.02517
G1 X136.182 Y104.427 E.40072
G1 X136.182 Y105.082 E.0252
G1 X128.818 Y97.719 E.40072
G1 X128.818 Y98.373 E.02517
G1 X136.182 Y105.736 E.40072
G1 X136.182 Y106.391 E.0252
G1 X128.818 Y99.028 E.40072
G1 X128.818 Y99.682 E.02517
G1 X136.182 Y107.045 E.40072
G1 X136.182 Y107.7 E.0252
G1 X128.818 Y100.337 E.40072
G1 X128.818 Y100.991 E.02517
G1 X136.182 Y108.354 E.40072
G1 X136.182 Y109.009 E.0252
G1 X128.818 Y101.646 E.40072
G1 X128.818 Y102.3 E.02517
G1 X136.182 Y109.663 E.40072
G1 X136.182 Y110.318 E.0252
G1 X128.818 Y102.955 E.40072
G1 X128.818 Y103.609 E.02517
G1 X136.182 Y110.972 E.40072
G1 X136.182 Y111.627 E.0252
G1 X128.818 Y104.264 E.40072
G1 X128.818 Y104.918 E.02517
G1 X136.182 Y112.281 E.40072
G1 X136.182 Y112.936 E.0252
G1 X128.818 Y105.573 E.40072
G1 X128.818 Y106.227 E.02517
G1 X136.182 Y113.59 E.40072
G1 X136.182 Y114.245 E.0252
G1 X128.818 Y106.882 E.40072
G1 X128.818 Y107.536 E.02517
M73 P3 R22
G1 X136.182 Y114.899 E.40072
G1 X136.182 Y115.554 E.0252
G1 X128.818 Y108.191 E.40072
G1 X128.818 Y108.845 E.02517
G1 X136.182 Y116.208 E.40072
G1 X136.182 Y116.863 E.0252
G1 X128.818 Y109.499 E.40075
G1 X128.818 Y110.154 E.0252
G1 X136.182 Y117.517 E.40072
G1 X136.182 Y118.172 E.0252
G1 X128.818 Y110.808 E.40075
G1 X128.818 Y111.463 E.0252
G1 X136.182 Y118.826 E.40072
G1 X136.182 Y119.48 E.02517
G1 X128.818 Y112.117 E.40072
G1 X128.818 Y112.772 E.0252
G1 X136.182 Y120.135 E.40072
G1 X136.182 Y120.789 E.02517
G1 X128.818 Y113.426 E.40072
G1 X128.818 Y114.081 E.0252
G1 X136.182 Y121.444 E.40072
G1 X136.182 Y122.098 E.02517
G1 X128.818 Y114.735 E.40072
G1 X128.818 Y115.39 E.0252
G1 X136.182 Y122.753 E.40072
G1 X136.182 Y123.407 E.02517
G1 X128.818 Y116.044 E.40072
G1 X128.818 Y116.699 E.0252
G1 X136.182 Y124.062 E.40072
G1 X136.182 Y124.716 E.02517
G1 X128.818 Y117.353 E.40072
G1 X128.818 Y118.008 E.0252
G1 X136.182 Y125.371 E.40072
G1 X136.182 Y125.732 E.01389
G1 X135.888 Y125.732 E.01131
G1 X128.818 Y118.662 E.38475
G1 X128.818 Y119.317 E.0252
G1 X135.233 Y125.732 E.3491
G1 X134.579 Y125.732 E.02517
G1 X128.818 Y119.971 E.31351
G1 X128.818 Y120.626 E.0252
G1 X133.924 Y125.732 E.27787
G1 X133.27 Y125.732 E.02517
G1 X128.818 Y121.28 E.24228
G1 X128.818 Y121.935 E.0252
G1 X132.615 Y125.732 E.20663
G1 X131.961 Y125.732 E.02517
G1 X128.818 Y122.589 E.17104
G1 X128.818 Y123.244 E.0252
M73 P4 R22
G1 X131.306 Y125.732 E.1354
G1 X130.652 Y125.732 E.02517
G1 X128.818 Y123.898 E.09981
G1 X128.818 Y124.552 E.02517
G1 X129.998 Y125.732 E.06422
G1 X129.343 Y125.732 E.0252
G1 X128.613 Y125.001 E.03975
M204 P1000
G1 E-.64 F2100
;WIPE_START
G1 F9600
G1 X129.157 Y125.546 E-.16
;WIPE_END
G1 Z.4 F720
G1 X121.593 Y126.143 F12000
G1 Z.2 F720
G1 E.8 F1500
M204 P600
;TYPE:Perimeter
;WIDTH:0.499999
M73 P4 R21
G1 F1200
G1 X113.407 Y126.143 E.31112
G1 X113.407 Y83.857 E1.60713
G1 X121.593 Y83.857 E.31112
G1 X121.593 Y126.083 E1.60485
M204 P1000
G1 X122.05 Y126.6 F12000
M204 P600
;TYPE:External perimeter
G1 F1200
G1 X112.95 Y126.6 E.34586
G1 X112.95 Y83.4 E1.64187
G1 X122.05 Y83.4 E.34586
G1 X122.05 Y126.54 E1.63959
M204 P1000
G1 X121.691 Y126.424 F12000
G1 E-.64 F2100
;WIPE_START
G1 F9600
G1 X121.28 Y126.545 E-.16
;WIPE_END
G1 Z.4 F720
G1 X120.451 Y84.063 F12000
G1 Z.2 F720
G1 E.8 F1500
M204 P600
;TYPE:Solid infill
;WIDTH:0.505706
G1 F1200
G1 X121.182 Y84.793 E.03975
G1 X121.182 Y85.448 E.0252
G1 X120.002 Y84.268 E.06422
G1 X119.348 Y84.268 E.02517
G1 X121.182 Y86.102 E.09981
G1 X121.182 Y86.757 E.0252
G1 X118.693 Y84.268 E.13545
G1 X118.039 Y84.268 E.02517
G1 X121.182 Y87.411 E.17104
G1 X121.182 Y88.066 E.0252
G1 X117.384 Y84.268 E.20669
G1 X116.73 Y84.268 E.02517
G1 X121.182 Y88.72 E.24228
G1 X121.182 Y89.374 E.02517
M73 P5 R21
G1 X116.076 Y84.268 E.27787
G1 X115.421 Y84.268 E.0252
G1 X121.182 Y90.029 E.31351
G1 X121.182 Y90.683 E.02517
G1 X114.767 Y84.268 E.3491
G1 X114.112 Y84.268 E.0252
G1 X121.182 Y91.338 E.38475
G1 X121.182 Y91.992 E.02517
G1 X113.818 Y84.629 E.40072
G1 X113.818 Y85.284 E.0252
G1 X121.182 Y92.647 E.40072
G1 X121.182 Y93.301 E.02517
G1 X113.818 Y85.938 E.40072
G1 X113.818 Y86.593 E.0252
G1 X121.182 Y93.956 E.40072
G1 X121.182 Y94.61 E.02517
G1 X113.818 Y87.247 E.40072
G1 X113.818 Y87.902 E.0252
G1 X121.182 Y95.265 E.40072
G1 X121.182 Y95.919 E.02517
G1 X113.818 Y88.556 E.40072
G1 X113.818 Y89.211 E.0252
G1 X121.182 Y96.574 E.40072
G1 X121.182 Y97.228 E.02517
G1 X113.818 Y89.865 E.40072
G1 X113.818 Y90.52 E.0252
G1 X121.182 Y97.883 E.40072
G1 X121.182 Y98.537 E.02517
G1 X113.818 Y91.174 E.40072
G1 X113.818 Y91.829 E.0252
G1 X121.182 Y99.192 E.40072
G1 X121.182 Y99.846 E.02517
G1 X113.818 Y92.483 E.40072
G1 X113.818 Y93.138 E.0252
G1 X121.182 Y100.501 E.40072
G1 X121.182 Y101.155 E.02517
G1 X113.818 Y93.792 E.40072
G1 X113.818 Y94.446 E.02517
G1 X121.182 Y101.81 E.40075
G1 X121.182 Y102.464 E.02517
G1 X113.818 Y95.101 E.40072
G1 X113.818 Y95.755 E.02517
G1 X121.182 Y103.119 E.40075
G1 X121.182 Y103.773 E.02517
G1 X113.818 Y96.41 E.40072
G1 X113.818 Y97.064 E.02517
G1 X121.182 Y104.427 E.40072
G1 X121.182 Y105.082 E.0252
G1 X113.818 Y97.719 E.40072
G1 X113.818 Y98.373 E.02517
G1 X121.182 Y105.736 E.40072
G1 X121.182 Y106.391 E.0252
G1 X113.818 Y99.028 E.40072
G1 X113.818 Y99.682 E.02517
M73 P6 R21
G1 X121.182 Y107.045 E.40072
G1 X121.182 Y107.7 E.0252
G1 X113.818 Y100.337 E.40072
G1 X113.818 Y100.991 E.02517
G1 X121.182 Y108.354 E.40072
G1 X121.182 Y109.009 E.0252
G1 X113.818 Y101.646 E.40072
G1 X113.818 Y102.3 E.02517
G1 X121.182 Y109.663 E.40072
G1 X121.182 Y110.318 E.0252
G1 X113.818 Y102.955 E.40072
G1 X113.818 Y103.609 E.02517
G1 X121.182 Y110.972 E.40072
G1 X121.182 Y111.627 E.0252
G1 X113.818 Y104.264 E.40072
G1 X113.818 Y104.918 E.02517
G1 X121.182 Y112.281 E.40072
G1 X121.182 Y112.936 E.0252
G1 X113.818 Y105.573 E.40072
G1 X113.818 Y106.227 E.02517
G1 X121.182 Y113.59 E.40072
G1 X121.182 Y114.245 E.0252
G1 X113.818 Y106.882 E.40072
G1 X113.818 Y107.536 E.02517
G1 X121.182 Y114.899 E.40072
G1 X121.182 Y115.554 E.0252
G1 X113.818 Y108.191 E.40072
G1 X113.818 Y108.845 E.02517
G1 X121.182 Y116.208 E.40072
G1 X121.182 Y116.863 E.0252
G1 X113.818 Y109.499 E.40075
G1 X113.818 Y110.154 E.0252
G1 X121.182 Y117.517 E.40072
G1 X121.182 Y118.172 E.0252
G1 X113.818 Y110.808 E.40075
G1 X113.818 Y111.463 E.0252
G1 X121.182 Y118.826 E.40072
G1 X121.182 Y119.48 E.02517
G1 X113.818 Y112.117 E.40072
G1 X113.818 Y112.772 E.0252
G1 X121.182 Y120.135 E.40072
G1 X121.182 Y120.789 E.02517
G1 X113.818 Y113.426 E.40072
G1 X113.818 Y114.081 E.0252
G1 X121.182 Y121.444 E.40072
G1 X121.182 Y122.098 E.02517
G1 X113.818 Y114.735 E.40072
G1 X113.818 Y115.39 E.0252
M73 P7 R21
G1 X121.182 Y122.753 E.40072
G1 X121.182 Y123.407 E.02517
G1 X113.818 Y116.044 E.40072
G1 X113.818 Y116.699 E.0252
G1 X121.182 Y124.062 E.40072
G1 X121.182 Y124.716 E.02517
G1 X113.818 Y117.353 E.40072
G1 X113.818 Y118.008 E.0252
G1 X121.182 Y125.371 E.40072
G1 X121.182 Y125.732 E.01389
G1 X120.888 Y125.732 E.01131
G1 X113.818 Y118.662 E.38475
G1 X113.818 Y119.317 E.0252
G1 X120.233 Y125.732 E.3491
G1 X119.579 Y125.732 E.02517
G1 X113.818 Y119.971 E.31351
G1 X113.818 Y120.626 E.0252
G1 X118.924 Y125.732 E.27787
G1 X118.27 Y125.732 E.02517
G1 X113.818 Y121.28 E.24228
G1 X113.818 Y121.935 E.0252
G1 X117.615 Y125.732 E.20663
G1 X116.961 Y125.732 E.02517
G1 X113.818 Y122.589 E.17104
G1 X113.818 Y123.244 E.0252
G1 X116.306 Y125.732 E.1354
G1 X115.652 Y125.732 E.02517
G1 X113.818 Y123.898 E.09981
G1 X113.818 Y124.552 E.02517
G1 X114.998 Y125.732 E.06422
G1 X114.343 Y125.732 E.0252
G1 X113.613 Y125.001 E.03975
M204 P1000
; stop printing object Untitled.stl id:0 copy 0
M106 S127.5
;LAYER_CHANGE
;Z:0.4
;HEIGHT:0.2
;BEFORE_LAYER_CHANGE
G92 E0.0
;0.4


G1 E-.64 F2100
;WIPE_START
G1 F9600
G1 X114.157 Y125.546 E-.16
;WIPE_END
G1 Z.4 F720
;AFTER_LAYER_CHANGE
;0.4
M104 S210 ; set temperature
; printing object Untitled.stl id:0 copy 0
G1 Z.6
G1 X128.132 Y126.418 F12000
G1 Z.4 F720
G1 E.8 F1500
;TYPE:Perimeter
;WIDTH:0.449999
G1 F4200
G1 X128.132 Y83.582 E1.44995
G1 X136.868 Y83.582 E.2957
G1 X136.868 Y126.418 E1.44995
G1 X128.192 Y126.418 E.29367
G1 X127.725 Y126.825 F12000
M204 P800
;TYPE:External perimeter
G1 F2399.997

G1 X127.725 Y126.375 E.01523
G1 X127.725 Y83.625 E1.44703
G1 X127.725 Y83.175 E.01523
G1 X128.175 Y83.175 E.01523
G1 X136.825 Y83.175 E.29279
G1 X137.275 Y83.175 E.01523
G1 X137.275 Y83.625 E.01523
G1 X137.275 Y126.375 E1.44703
G1 X137.275 Y126.825 E.01523
G1 X136.825 Y126.825 E.01523
G1 X128.235 Y126.825 E.29076
G1 X127.785 Y126.825 E.01523

M204 P1000
G1 X127.754 Y126.426 F12000
G1 E-.64 F2100
;WIPE_START
G1 F9600
G1 X127.784 Y126.055 E-.16
;WIPE_END
G1 Z.6 F720
G1 X128.609 Y83.981 F12000
G1 Z.4 F720
G1 E.8 F1500
M204 P1500
;TYPE:Solid infill
;WIDTH:0.548766
G1 F7709.856
G1 X128.564 Y83.937 E.00265
G1 X128.503 Y83.953 E.00265
M73 P8 R21
G1 X128.487 Y84.014 E.00265
G1 X128.531 Y84.059 E.00265
G1 X128.593 Y84.043 E.00269
;WIDTH:0.449999
G1 F9580.449
G1 X129.243 Y83.948 E.02224
G1 X128.432 Y84.765 E.03897
;WIDTH:0.41646
G1 F10440.664
G1 X128.366 Y84.838 E.00306
;WIDTH:0.38292
G1 F11470.588
G1 X128.295 Y84.819 E.00208
G1 X128.314 Y84.89 E.00208
G1 X128.355 Y84.879 E.0012
;WIDTH:0.449999
G1 F9580.449
G1 X128.498 Y85.268 E.01403
G1 X129.818 Y83.948 E.06319
G1 X130.394 Y83.948 E.0195
G1 X128.498 Y85.844 E.09076
G1 X128.498 Y86.42 E.0195
G1 X130.97 Y83.948 E.11833
G1 X131.546 Y83.948 E.0195
G1 X128.498 Y86.996 E.14591
G1 X128.498 Y87.571 E.01946
G1 X132.121 Y83.948 E.17343
G1 X132.697 Y83.948 E.0195
G1 X128.498 Y88.147 E.201
G1 X128.498 Y88.723 E.0195
G1 X133.273 Y83.948 E.22858
G1 X133.848 Y83.948 E.01946
G1 X128.498 Y89.298 E.2561
G1 X128.498 Y89.874 E.0195
G1 X134.424 Y83.948 E.28367
G1 X135 Y83.948 E.0195
G1 X128.498 Y90.45 E.31125
G1 X128.498 Y91.025 E.01946
G1 X135.575 Y83.948 E.33877
G1 X136.151 Y83.948 E.0195
G1 X128.498 Y91.601 E.36634
G1 X128.498 Y92.177 E.0195
G1 X136.502 Y84.174 E.38312
G1 X136.561 Y84.031 E.00524
;WIDTH:0.41646
G1 F10440.664
G1 X136.621 Y83.889 E.00479
;WIDTH:0.38292
G1 F11470.588
G1 X136.58 Y83.9 E.0012
G1 X136.561 Y83.829 E.00208
G1 X136.632 Y83.848 E.00208
M204 P1000
G1 X136.502 Y84.749 F12000
M204 P1500
;WIDTH:0.449999
G1 F9580.449
G1 X128.498 Y92.753 E.38315
G1 X128.498 Y93.328 E.01946
G1 X136.502 Y85.325 E.38312
G1 X136.502 Y85.901 E.0195
G1 X128.498 Y93.904 E.38312
G1 X128.498 Y94.48 E.0195
G1 X136.502 Y86.476 E.38315
G1 X136.502 Y87.052 E.0195
G1 X128.498 Y95.055 E.38312
G1 X128.498 Y95.631 E.0195
G1 X136.502 Y87.628 E.38312
G1 X136.502 Y88.204 E.0195
G1 X128.498 Y96.207 E.38312
G1 X128.498 Y96.782 E.01946
G1 X136.502 Y88.779 E.38312
G1 X136.502 Y89.355 E.0195
G1 X128.498 Y97.358 E.38312
G1 X128.498 Y97.934 E.0195
G1 X136.502 Y89.931 E.38312
G1 X136.502 Y90.506 E.01946
G1 X128.498 Y98.509 E.38312
G1 X128.498 Y99.085 E.0195
G1 X136.502 Y91.082 E.38312
G1 X136.502 Y91.658 E.0195
G1 X128.498 Y99.661 E.38312
G1 X128.498 Y100.237 E.0195
G1 X136.502 Y92.233 E.38315
G1 X136.502 Y92.809 E.0195
G1 X128.498 Y100.812 E.38312
G1 X128.498 Y101.388 E.0195
G1 X136.502 Y93.385 E.38312
G1 X136.502 Y93.961 E.0195
G1 X128.498 Y101.964 E.38312
G1 X128.498 Y102.539 E.01946
G1 X136.502 Y94.536 E.38312
G1 X136.502 Y95.112 E.0195
G1 X128.498 Y103.115 E.38312
G1 X128.498 Y103.691 E.0195
G1 X136.502 Y95.688 E.38312
G1 X136.502 Y96.263 E.01946
G1 X128.498 Y104.266 E.38312
G1 X128.498 Y104.842 E.0195
G1 X136.502 Y96.839 E.38312
